assets/img/icons/icon-discord.svg

<svg width="29" height="23" viewBox="0 0 29 23" fill="none" xmlns="http://www.w3.org/2000/svg">
<path d="M7.57134 22.0439C7.57134 22.0439 8.48753 20.9114 9.23405 19.9677C6.0783 19.0069 4.89065 16.9993 4.89065 16.9993C4.89065 16.9993 5.14515 17.1709 5.58628 17.4283C5.60324 17.4454 5.63718 17.4798 5.68808 17.4969C5.75594 17.5484 5.84077 17.5656 5.90864 17.617C6.5364 17.9602 7.14719 18.2519 7.72404 18.4749C8.74203 18.8696 9.96361 19.2814 11.3718 19.5559C13.2381 19.8991 15.4098 20.0364 17.8021 19.5731C18.9728 19.3672 20.1604 19.024 21.399 18.4921C22.2642 18.1661 23.2313 17.6857 24.2493 17.0165C24.2493 17.0165 23.0108 19.0755 19.7532 20.002C20.4997 20.9629 21.399 22.0267 21.399 22.0267C26.8791 21.8552 28.9999 18.2176 28.9999 18.2176C28.9999 10.136 25.42 3.58145 25.42 3.58145C21.8401 0.887582 18.4468 0.956216 18.4468 0.956216L18.1075 1.35086C22.3321 2.6549 24.2832 4.54232 24.2832 4.54232C21.7044 3.11818 19.1764 2.41468 16.818 2.14015C15.0196 1.93425 13.306 1.98572 11.796 2.19162C11.6433 2.19162 11.5245 2.20878 11.3718 2.2431C10.5065 2.31173 8.38573 2.63774 5.73897 3.82167C4.82279 4.25063 4.27986 4.54232 4.27986 4.54232C4.27986 4.54232 6.3328 2.56911 10.795 1.26507L10.5574 0.956216C10.5574 0.956216 7.16415 0.887582 3.58424 3.59861C3.58424 3.59861 0.0043335 10.1531 0.0043335 18.2347C0.0043335 18.2176 2.0912 21.8723 7.57134 22.0439ZM18.9219 10.3247C20.3301 10.3247 21.4499 11.5773 21.4499 13.1044C21.4499 14.6315 20.3301 15.884 18.9219 15.884C17.5306 15.884 16.3939 14.6315 16.3939 13.1044C16.3769 11.5773 17.4967 10.3247 18.9219 10.3247ZM9.86181 10.3247C11.27 10.3247 12.4237 11.5773 12.3898 13.1044C12.3898 14.6315 11.27 15.884 9.86181 15.884C8.47056 15.884 7.33382 14.6315 7.33382 13.1044C7.33382 11.5773 8.43663 10.3247 9.86181 10.3247Z" fill="#997B5F"/>
</svg>

<?xml version="1.0" encoding="utf-8"?>
<!-- Generator: Adobe Illustrator 26.0.1, SVG Export Plug-In . SVG Version: 6.00 Build 0)  -->
<svg version="1.1" id="Layer_1" xmlns="http://www.w3.org/2000/svg" xmlns:xlink="http://www.w3.org/1999/xlink" x="0px" y="0px"
	 viewBox="0 0 29 23" style="enable-background:new 0 0 29 23;" xml:space="preserve">
<style type="text/css">
	.st0{fill:#F5F5F5;}
</style>
<path class="st0" d="M7.6,22c0,0,0.9-1.1,1.7-2.1c-3.2-1-4.3-3-4.3-3s0.3,0.2,0.7,0.4c0,0,0.1,0.1,0.1,0.1c0.1,0.1,0.2,0.1,0.2,0.1
	c0.6,0.3,1.2,0.6,1.8,0.9c1,0.4,2.2,0.8,3.6,1.1c1.9,0.3,4,0.5,6.4,0c1.2-0.2,2.4-0.5,3.6-1.1c0.9-0.3,1.8-0.8,2.9-1.5
	c0,0-1.2,2.1-4.5,3c0.7,1,1.6,2,1.6,2c5.5-0.2,7.6-3.8,7.6-3.8c0-8.1-3.6-14.6-3.6-14.6c-3.6-2.7-7-2.6-7-2.6l-0.3,0.4
	c4.2,1.3,6.2,3.2,6.2,3.2c-2.6-1.4-5.1-2.1-7.5-2.4c-1.8-0.2-3.5-0.2-5,0.1c-0.2,0-0.3,0-0.4,0.1c-0.9,0.1-3,0.4-5.6,1.6
	C4.8,4.3,4.3,4.5,4.3,4.5s2.1-2,6.5-3.3L10.6,1c0,0-3.4-0.1-7,2.6c0,0-3.6,6.6-3.6,14.6C0,18.2,2.1,21.9,7.6,22z M18.9,10.3
	c1.4,0,2.5,1.3,2.5,2.8s-1.1,2.8-2.5,2.8c-1.4,0-2.5-1.3-2.5-2.8C16.4,11.6,17.5,10.3,18.9,10.3z M9.9,10.3c1.4,0,2.6,1.3,2.5,2.8
	c0,1.5-1.1,2.8-2.5,2.8c-1.4,0-2.5-1.3-2.5-2.8S8.4,10.3,9.9,10.3z"/>
</svg>
